!!!COM: Schiørring, Niels
!!!CDT: 1743-1798
!!!OPR@@DA: Choral-Bog
!!!ONM: 79
!!!OTL@@DA: D Gud! du fromme Gud!
**kern	**fb	**kern	**kern	**kern	**kern	**kern	**kern	**kern
*part6	*part6	*part6	*part5	*part5	*part4	*part3	*part2	*part1
*staff8	*	*staff7	*staff6	*staff5	*staff4	*staff3	*staff2	*staff1
*clefF4	*	*clefC1	*clefF4	*clefC1	*clefF4	*clefC4	*clefC3	*clefC1
*mclefF4	*	*mclefG2	*mclefF4	*mclefG2	*mclefF4	*mclefGv2	*mclefG2	*mclefG2
*k[]	*	*k[]	*k[]	*k[]	*k[]	*k[]	*k[]	*k[]
*M4/4	*	*M4/4	*M4/4	*M4/4	*M4/4	*M4/4	*M4/4	*M4/4
*met(c)	*	*met(c)	*met(c)	*met(c)	*met(c)	*met(c)	*met(c)	*met(c)
*MM180	*	*MM180	*MM180	*MM180	*MM180	*MM180	*MM180	*MM180
*	*	*	*^	*^	*	*	*	*
2AA	.	2e	2AA	2A	2e	2c	2AA	2A	2c	2e
=1	=1	=1	=1	=1	=1	=1	=1	=1	=1	=1
2C	6	2a	2C	2A	2a	1e	2C	2A	2e	2a
4E	#	2g#X	4E	2B	2g#X	.	(4E	2B	2e	2g#X
4D	.	.	4D	.	.	.	4D)	.	.	.
=2	=2	=2	=2	=2	=2	=2	=2	=2	=2	=2
*	*	*	*	*	*	*^	*	*	*	*
2C	6	2a	2C	2c	2a	2ryy	2e\	2C	2c	2e	2a
*	*	*	*v	*v	*	*	*	*	*	*	*
2BB	6	2b	2BB	2b	2d	2g#X\	2BB	2d	2g#X	2b
=3	=3	=3	=3	=3	=3	=3	=3	=3	=3	=3
2AA	.	2cc	2AA	2cc	2e	2a\	2AA	2e	2a	2cc
2C	.	2cc	2C	2cc	2e	2gni\	2C	2e	2gni	2cc
=4	=4	=4	=4	=4	=4	=4	=4	=4	=4	=4
2BB	5	2dd	2BB	2dd	2f	2g\	2BB	2f	2g	2dd
2C	.	2cc	2C	2cc	2e	2g\	2C	2e	2g	2cc
=5	=5	=5	=5	=5	=5	=5	=5	=5	=5	=5
2GG#X	5	2b	2GG#X	2b	2d	2e\	2GG#X	2d	2e	2b
2AA	.	2a	2AA	2a	2c	2e\	2AA	2c	2e	2a
=6	=6	=6	=6	=6	=6	=6	=6	=6	=6	=6
2BB	6	1gni	2BB	1gni	2d	1d\	2BB	(2d	1d	1g
2GGni	.	.	2GGni	.	2B	.	2GGni	2B)	.	.
*	*	*	*	*	*v	*v	*	*	*	*
=	=	=	=	=	=	=	=	=	=
*	*	*	*^	*	*	*	*	*	*
2C	.	2e	2C	2G	2e	2c	2C	2G	2c	2e
=7:|!	=7:|!	=7:|!	=7:|!	=7:|!	=7:|!	=7:|!	=7:|!	=7:|!	=7:|!	=7:|!
2C	.	2e	2C	2G	2e	2c	2C	2G	2c	2e
*	*	*	*v	*v	*	*	*	*	*	*
=8	=8	=8	=8	=8	=8	=8	=8	=8	=8
*	*	*	*	*	*^	*^	*	*	*
2EE	6	2e	2EE	2e	2G	2c\	2E	2EE	2G	2c	2e
*	*	*	*^	*	*	*	*	*	*	*	*
2GG	.	2d	2GG	2G	2d	1.ryy	2B\	2G	2GG	2G	2B	2d
*	*	*	*	*	*	*v	*v	*	*	*	*	*
=9	=9	=9	=9	=9	=9	=9	=9	=9	=9	=9	=9
2C	.	2e	2C	2G	2e	1c	2C	1r	2G	2c	2e
2AA	6	2f#X	2AA	2A	2f#X	.	2AA	.	2A	2c	2f#X
*	*	*	*v	*v	*	*	*	*	*	*	*
=10	=10	=10	=10	=10	=10	=10	=10	=10	=10	=10
*	*	*	*	*	*^	*	*	*	*	*
2GG	.	2g	2GG	2g	2B	2d\	2GG	1r	2B	2d	2g
*	*	*	*^	*	*	*	*	*	*	*	*
2AA	#	2e	2AA	2A	2e	2%5ryy	2c#X\	2AA	.	2A	2c#X	2e
*	*	*	*	*	*	*v	*v	*	*	*	*	*
=11	=11	=11	=11	=11	=11	=11	=11	=11	=11	=11	=11
2D	5	2f	2D	2F	2f	4A	2D	1r	(4A	(4d	2f
2E	nr6	2e	2E	2G	2e	[2cni	2E	.	2G	[2cni	2e
=12	=12	=12	=12	=12	=12	=12	=12	=12	=12	=12	=12
2F	6 5	2d	2F	2A	2d	2c]	2F	1r	2A	2c]	2d
2G	.	2d	2G	2G	2d	2B	2G	.	2G	2B	2d
=13	=13	=13	=13	=13	=13	=13	=13	=13	=13	=13	=13
*	*	*	*	*	*	*^	*	*	*	*	*
2C	.	2c	2C	2E	2c	2ryy	2G\	2C	1r	2E	2c	2c
*	*	*	*v	*v	*	*	*	*	*	*	*	*
2GG#X	5	2e	2GG#X	2e	2B	2d\	2GG#X	.	2B	2d	2e
=14	=14	=14	=14	=14	=14	=14	=14	=14	=14	=14	=14
2AA	.	2e	2AA	2e	2A	2c\	2AA	1r	2A	2c	2e
*	*	*	*^	*	*	*	*	*	*	*	*
2C	6	2a	2C	2A	2a	1.ryy	2e\	2C	.	2A	2e	2a
*	*	*	*	*	*	*v	*v	*	*	*	*	*
=15	=15	=15	=15	=15	=15	=15	=15	=15	=15	=15	=15
2BB	6	2g#X	2BB	2B	2g#X	2d	2BB	1r	2B	2d	2g#X
2AA	.	2a	2AA	2E	2a	2c	2AA	.	(4c	2e	2a
.	.	.	.	.	.	.	.	.	4A)	.	.
=16	=16	=16	=16	=16	=16	=16	=16	=16	=16	=16	=16
*	*	*	*	*	*	*^	*	*	*	*	*
2E	#	2b	2E	2G#X	2b	2ryy	2B\	2E	1r	2G#X	2e	2b
*	*	*	*v	*v	*	*	*	*	*	*	*	*
2E	.	2b	2E	2b	2e	2g#X\	2E	.	2e	2g#X	2b
=17	=17	=17	=17	=17	=17	=17	=17	=17	=17	=17	=17
2AA	.	2cc	2AA	2cc	2e	2a\	2AA	1r	2e	2a	2cc
2D	.	2dd	2D	2dd	2f	2a\	2D	.	2f	[2a	2dd
=18	=18	=18	=18	=18	=18	=18	=18	=18	=18	=18	=18
2E	6 4	2cc	2E	2cc	2e	2a\	2E	2E	2e	2a]	2cc
2EE	5 #	2b	2EE	2b	2d	2g#X\	2E	2EE	2d	2g#X	2b
*	*	*	*	*	*	*	*v	*v	*	*	*
=19	=19	=19	=19	=19	=19	=19	=19	=19	=19	=19
2AA	.	2a	2AA	2a	2c	2e\	2AA	2c	2a	2a
*	*	*	*	*v	*v	*v	*	*	*	*
==	==	==	==	==	==	==	==	==
*-	*-	*-	*-	*-	*-	*-	*-	*-
!!!system-decoration: {(s1,s2,s3,s4)}{(s5,s6)}{(s7,s8)}
!!!RDF**kern: i = editorial accidental
!!!RDF**kern: > = above
!!!RDF**kern: < = below
!!!AGN: chorale
!!!EED: Derek Remeš
!!!EED2: Victor Phan
!!!END: 2023/11/28
!!!ENC: Wolfgang Drescher
!!!EEV: 2023/11/30
!!!title: @{ONM}. @{OTL}